X: 587
T: Garfield's Blackberry Blossom
B: jims roots
M:4/4
L:1/8
Q: 1/4=100
K:C
V:1 
GABc d2 [d2f2] | d^cBd cBGB | cBGF DCB,C | "D"DCB,D "G"G,2 [G,2F2] ||
GABc d2 [d2g2] | d^cBd cBGB | cBGF DCB,C | [1 "D"DCB,D "G"G,2 [G,2F2]:| [2 "D"DCB,D "G"G,2 [d2g2]-|]
"G"[dg]ag2 "F"[Af]gf2 | "G"d^cBd cBGA | gagB d^cBc | "D"dgga "G"g2[d2g2]- |
"G"[dg]ag2 "F"[Af]gf2 | "G"d^cBd cBGB | cBGF DCB,C | "D"DCB,D "G"G,2 [d2g2]-||
"G"[dg]ag2 "F"[Af]gf2 | "G"d^cBd cBGA | gagB d^cBc | "D"dgga "G"g2 ga |
bga^f gagB | d^cBd cBGB | cBGF DCB,C | "D"DCB,D "G"G,4 |]
V:G,2F2 
 |:"G"[G,2G2] Bc d2 [d2f2] | d^cBd cBGF | GABc d2 [d2f2] | d^cBG G2F2 |
V:G,2G2 
 Bc d2 [d2f2] | d^cBd cBGF | GABc d2 [d2f2] | d^cBG G2F2 |
% abcbook-tune_id 6298c25dac5c3c3bd1f78c5e


% abcbook-boost 0
% abcbook-tablature 
% abcbook-transpose 
% abcbook-lastupdated 1654178398161
% abcbook-soundfonts 
% abcbook-repeats 1


